assets/symbols/mulberry/flag_brazil.svg

<svg height="850.394" viewBox="0 0 850.394 850.394" width="850.394" xmlns="http://www.w3.org/2000/svg"><path d="m540.75 359.88.53.16c-11.16 35.95-44.69 62.06-84.32 62.06-48.75 0-88.28-39.52-88.28-88.27 0-12.09 2.43-23.61 6.83-34.1l.46.19s46.14-10.11 99.2 14.01c43.16 19.61 65.58 45.95 65.58 45.95z" fill="#2c308c"/><path d="m545.24 333.83c0 9.12-1.38 17.93-3.96 26.21l-.53-.16s-22.42-26.34-65.58-45.95c-53.06-24.12-99.2-14.01-99.2-14.01l-.46-.19c13.33-31.82 44.78-54.18 81.45-54.18 48.76 0 88.28 39.52 88.28 88.28z" fill="#2c308c"/><path d="m672.46 334.1-216.34 136.76-216.34-136.76 217.46-138.43zm-131.18 25.94c2.58-8.28 3.96-17.09 3.96-26.21 0-48.76-39.521-88.28-88.28-88.28-36.67 0-68.12 22.36-81.45 54.18-4.4 10.49-6.83 22.01-6.83 34.1 0 48.75 39.53 88.27 88.28 88.27 39.63 0 73.16-26.11 84.32-62.06z" fill="#fbee34"/><path d="m736.91 150.27v366.55l-564.91-.82h-.17v-365.73zm-280.79 320.59 216.34-136.76-215.22-138.43-217.46 138.43z" fill="#6ebe44"/><path d="m171.83 516v252h-1.83l-36.29 4.75-1.71-647.44c5.73 2.67 12.54 4.22 19.86 4.22 7.36 0 14.21-1.57 19.97-4.28z" fill="#c8c8c8"/><path d="m171.83 125.25c-5.76 2.71-12.61 4.28-19.97 4.28-7.32 0-14.13-1.55-19.86-4.22-10.25-4.78-17.05-13.15-17.05-22.68 0-14.86 16.52-26.9 36.91-26.9s36.92 12.04 36.92 26.9c0 9.5-6.75 17.84-16.95 22.62z" fill="#c8c8c8"/><g fill="none"><g stroke="#231f20"><path d="m174.2 150.27h562.71v366.55l-564.91-.82m-40-390.69c-10.25-4.78-17.05-13.15-17.05-22.68 0-14.86 16.52-26.9 36.91-26.9s36.92 12.04 36.92 26.9c0 9.5-6.75 17.84-16.95 22.62-5.76 2.71-12.61 4.28-19.97 4.28-7.32 0-14.13-1.55-19.86-4.22z" stroke-width="21"/><path d="m132 124v1.31l1.71 647.44m38.12-649.24v649.24" stroke-width="21"/><g stroke-width="14"><path d="m457.24 195.67 215.22 138.43-216.34 136.76-216.34-136.76z"/><path d="m375.51 299.73c13.33-31.82 44.78-54.18 81.45-54.18 48.76 0 88.28 39.52 88.28 88.28 0 9.12-1.38 17.93-3.96 26.21-11.16 35.95-44.69 62.06-84.32 62.06-48.75 0-88.28-39.52-88.28-88.27 0-12.09 2.43-23.61 6.83-34.1z"/><path d="m375.97 299.92s46.14-10.11 99.2 14.01c43.16 19.61 65.58 45.95 65.58 45.95"/></g></g><path d="m0 0h850.394v850.394h-850.394z"/></g></svg>

<svg xmlns="http://www.w3.org/2000/svg" width="850.394" height="850.394" viewBox="0 0 850.394 850.394" overflow="visible"><path d="M540.75 359.88l.53.16c-11.16 35.95-44.69 62.06-84.32 62.06-48.75 0-88.28-39.52-88.28-88.27 0-12.09 2.43-23.61 6.83-34.1l.46.19s46.14-10.11 99.2 14.01c43.16 19.61 65.58 45.95 65.58 45.95z" fill="#2c308c"/><path d="M545.24 333.83c0 9.12-1.38 17.93-3.96 26.21l-.53-.16s-22.42-26.34-65.58-45.95c-53.06-24.12-99.2-14.01-99.2-14.01l-.46-.19c13.33-31.82 44.78-54.18 81.45-54.18 48.76 0 88.28 39.52 88.28 88.28z" fill="#2c308c"/><path d="M672.46 334.1L456.12 470.86 239.78 334.1l217.46-138.43L672.46 334.1zm-131.18 25.94c2.58-8.28 3.96-17.09 3.96-26.21 0-48.76-39.521-88.28-88.28-88.28-36.67 0-68.12 22.36-81.45 54.18-4.4 10.49-6.83 22.01-6.83 34.1 0 48.75 39.53 88.27 88.28 88.27 39.63 0 73.16-26.11 84.32-62.06z" fill="#fbee34"/><path d="M736.91 150.27v366.55L172 516h-.17V150.27h565.08zM456.12 470.86L672.46 334.1 457.24 195.67 239.78 334.1l216.34 136.76z" fill="#6ebe44"/><path d="M171.83 516v252H170l-36.29 4.75L132 125.31c5.73 2.67 12.54 4.22 19.86 4.22 7.36 0 14.21-1.57 19.97-4.28V516z" fill="#c8c8c8"/><path d="M171.83 125.25c-5.76 2.71-12.61 4.28-19.97 4.28-7.32 0-14.13-1.55-19.86-4.22-10.25-4.78-17.05-13.15-17.05-22.68 0-14.86 16.52-26.9 36.91-26.9 20.39 0 36.92 12.04 36.92 26.9 0 9.5-6.75 17.84-16.95 22.62z" fill="#c8c8c8"/><g fill="none" stroke="#231f20"><path stroke-width="21" d="M174.2 150.27h562.71v366.55L172 516M132 125.31c-10.25-4.78-17.05-13.15-17.05-22.68 0-14.86 16.52-26.9 36.91-26.9 20.39 0 36.92 12.04 36.92 26.9 0 9.5-6.75 17.84-16.95 22.62-5.76 2.71-12.61 4.28-19.97 4.28-7.32 0-14.13-1.55-19.86-4.22z"/><path stroke-width="21" d="M132 124v1.31l1.71 647.44M171.83 123.51v649.24"/><path stroke-width="14" d="M457.24 195.67L672.46 334.1 456.12 470.86 239.78 334.1z"/><path d="M375.51 299.73c13.33-31.82 44.78-54.18 81.45-54.18 48.76 0 88.28 39.52 88.28 88.28 0 9.12-1.38 17.93-3.96 26.21-11.16 35.95-44.69 62.06-84.32 62.06-48.75 0-88.28-39.52-88.28-88.27 0-12.09 2.43-23.61 6.83-34.1z" stroke-width="14"/><path d="M375.97 299.92s46.14-10.11 99.2 14.01c43.16 19.61 65.58 45.95 65.58 45.95" stroke-width="14"/></g><path fill="none" d="M0 0h850.394v850.394H0z"/></svg>
